X: 18
T: John Ryan's
Z: Alex J.
S: https://thesession.org/tunes/441#setting53788
R: polka
M: 2/4
L: 1/8
K: Dmaj
|: dd B/c/d/B/ | AF AF | dd B/c/d/B/ | AF ED |
dd B/c/d/B/ | AF Ad/e/ | fd ec | d2 d2 :|
|:fd de/f/ | gf ed | fd de/f/ | gf a2 |
fd de/f/ | gf ed | fd ec | d2 d2 :|

%-------------------- TUNE SEPARATOR --------------------%

